X: 10799
T: Drag Her Round The Road
R: reel
M: 4/4
K: Eminor
BEED E2GE|EDB,E DEGA|BEED E2DE|GABG A2GA|
BEE2 CEB,E|E2GE DEGA|BEED E2GE|DEGB A2BA||
G3F GBdB|c2AB cded|B3A GBde|dBGB AGED|
g3B GBdB|c2AB cdef|gedB c2ge|dBGB A2GA||

